src/assets/icons/q-icon.svg

<svg width="28" height="25" viewBox="0 0 28 25" fill="none" xmlns="http://www.w3.org/2000/svg">
<path fill-rule="evenodd" clip-rule="evenodd" d="M21.4659 20.8522C21.611 20.6735 21.7497 20.491 21.8846 20.3073L24.4301 21.8333H27.9937L22.8544 18.7551C23.1911 18.1267 23.4733 17.4716 23.6983 16.7968C24.1718 15.4064 24.418 13.9511 24.4275 12.4851C24.4201 11.0122 24.1678 9.5503 23.6804 8.15724C23.1759 6.69171 22.4125 5.32486 21.4252 4.1193C20.3901 2.8583 19.0818 1.83964 17.5955 1.13739C16.0471 0.387544 14.208 0.012619 12.0783 0.012619C10.0419 0.012619 8.26602 0.387544 6.75063 1.13739C5.28669 1.84591 3.9963 2.85721 2.96808 4.1018C1.9768 5.30219 1.2188 6.67136 0.731899 8.14099C0.256738 9.5421 0.0110153 11.0084 0.00389862 12.4851C0.00615962 13.9875 0.238704 15.481 0.693717 16.9155C1.14934 18.3837 1.88343 19.7542 2.85735 20.9547C3.88751 22.2058 5.20108 23.2034 6.69335 23.8678C8.26984 24.5985 10.1573 24.9639 12.3557 24.9639C14.415 24.9639 16.1968 24.5889 17.7012 23.8391C17.9226 23.7291 18.1364 23.6116 18.3477 23.4904L20.8677 25.0001H24.4314L19.9959 22.3394C20.5333 21.891 21.0255 21.393 21.4659 20.8522ZM14.0001 18.7464H10.4364L16.1637 22.1732C16.0988 22.2169 16.0364 22.2607 15.9703 22.2982C14.9436 22.948 13.7264 23.2725 12.3188 23.2717C10.817 23.2717 9.52857 22.9572 8.45354 22.3282C7.38346 21.7094 6.48106 20.8464 5.82281 19.8124C5.13918 18.7325 4.63884 17.5506 4.34135 16.3131C4.02794 15.0591 3.86899 13.7726 3.8679 12.4814C3.87173 11.2128 4.0385 9.94973 4.36426 8.72213C4.68122 7.48357 5.19675 6.30238 5.89154 5.22283C6.5495 4.19128 7.43181 3.31551 8.47517 2.65834C9.51117 2.01014 10.7245 1.68562 12.1152 1.68478C13.5695 1.68478 14.8261 2.0093 15.885 2.65834C16.9514 3.31205 17.8503 4.19809 18.5119 5.24782C19.2045 6.33017 19.7243 7.51028 20.0532 8.74712C20.389 9.96966 20.5601 11.2301 20.5623 12.4964C20.5562 13.7517 20.3895 15.0012 20.0659 16.2156C19.9997 16.4656 19.9259 16.7093 19.847 16.9517L17.5663 15.5908H14.0026L19.1419 18.6689C18.9596 19.0322 18.7582 19.3859 18.5386 19.7287C18.268 20.1508 17.9614 20.5496 17.6223 20.9209L14.0001 18.7464Z" fill="white"/>
</svg>

<?xml version="1.0" encoding="UTF-8"?>
<svg fill="none" viewBox="0 0 28 25" xmlns="http://www.w3.org/2000/svg">
<path d="m21.466 20.852c0.1451-0.1787 0.2838-0.3612 0.4187-0.5449l2.5455 1.526h3.5636l-5.1393-3.0782c0.3367-0.6284 0.6189-1.2835 0.8439-1.9583 0.4735-1.3904 0.7197-2.8457 0.7292-4.3117-0.0074-1.4729-0.2597-2.9348-0.7471-4.3279-0.5045-1.4655-1.2679-2.8324-2.2552-4.0379-1.0351-1.261-2.3434-2.2797-3.8297-2.9819-1.5484-0.74985-3.3875-1.1248-5.5172-1.1248-2.0364 0-3.8123 0.37492-5.3277 1.1248-1.4639 0.70852-2.7543 1.7198-3.7826 2.9644-0.99128 1.2004-1.7493 2.5696-2.2362 4.0392-0.47516 1.4011-0.72088 2.8674-0.728 4.3441 0.002261 1.5024 0.23481 2.9959 0.68982 4.4304 0.45562 1.4682 1.1897 2.8387 2.1636 4.0392 1.0302 1.2511 2.3437 2.2487 3.836 2.9131 1.5765 0.7307 3.464 1.0961 5.6624 1.0961 2.0593 0 3.8411-0.375 5.3455-1.1248 0.2214-0.11 0.4352-0.2275 0.6465-0.3487l2.52 1.5097h3.5637l-4.4355-2.6607c0.5374-0.4484 1.0296-0.9464 1.47-1.4872zm-7.4658-2.1058h-3.5637l5.7273 3.4268c-0.0649 0.0437-0.1273 0.0875-0.1934 0.125-1.0267 0.6498-2.2439 0.9743-3.6515 0.9735-1.5018 0-2.7902-0.3145-3.8653-0.9435-1.0701-0.6188-1.9725-1.4818-2.6307-2.5158-0.68363-1.0799-1.184-2.2618-1.4815-3.4993-0.31341-1.254-0.47236-2.5405-0.47345-3.8317 0.00383-1.2686 0.1706-2.5317 0.49636-3.7593 0.31696-1.2386 0.83249-2.4198 1.5273-3.4993 0.65796-1.0316 1.5403-1.9073 2.5836-2.5645 1.036-0.6482 2.2493-0.97272 3.64-0.97356 1.4543 0 2.7109 0.32452 3.7698 0.97356 1.0664 0.65371 1.9653 1.5398 2.6269 2.5895 0.6926 1.0824 1.2124 2.2625 1.5413 3.4993 0.3358 1.2225 0.5069 2.483 0.5091 3.7493-0.0061 1.2553-0.1728 2.5048-0.4964 3.7192-0.0662 0.25-0.14 0.4937-0.2189 0.7361l-2.2807-1.3609h-3.5637l5.1393 3.0781c-0.1823 0.3633-0.3837 0.717-0.6033 1.0598-0.2706 0.4221-0.5772 0.8209-0.9163 1.1922l-3.6222-2.1745z" clip-rule="evenodd" fill="#fff" fill-rule="evenodd"/>
</svg>
